flags/quechua.svg

<svg width="512" height="512" viewBox="0 0 512 512" fill="none" xmlns="http://www.w3.org/2000/svg">
<rect y="416" width="512" height="96" fill="var(--flag-palette-purple, #4a1f63)"/>
<rect y="343" width="512" height="96" fill="var(--flag-palette-blue, #0052b4)"/>
<rect y="270" width="512" height="96" fill="var(--flag-palette-light-blue, #338af3)"/>
<rect y="219" width="512" height="74" fill="var(--flag-palette-dark-green, #496e2d)"/>
<rect y="123" width="512" height="96" fill="var(--flag-palette-yellow, #ffda44)"/>
<rect y="50" width="512" height="96" fill="var(--flag-palette-gold, #ff9811)"/>
<rect width="512" height="73" fill="var(--flag-palette-bright-red, #d80027)"/>
<circle cx="256" cy="256" r="112" fill="var(--flag-palette-brown, #85693d)"/>
<path fill-rule="evenodd" clip-rule="evenodd" d="M360 256C360 313.438 313.438 360 256 360C198.562 360 152 313.438 152 256C152 198.562 198.562 152 256 152C313.438 152 360 198.562 360 256ZM320 256C320 291.346 291.346 320 256 320C220.654 320 192 291.346 192 256C192 220.654 220.654 192 256 192C291.346 192 320 220.654 320 256ZM256 312C286.928 312 312 286.928 312 256C312 225.072 286.928 200 256 200C225.072 200 200 225.072 200 256C200 286.928 225.072 312 256 312Z" fill="var(--flag-palette-dark-yellow, #ffc635)"/>
<path fill-rule="evenodd" clip-rule="evenodd" d="M212 232C212 223.163 219.163 216 228 216C236.837 216 244 223.163 244 232C244 240.837 236.837 248 228 248C219.163 248 212 240.837 212 232ZM228 224C223.582 224 220 227.582 220 232C220 236.418 223.582 240 228 240C232.418 240 236 236.418 236 232C236 227.582 232.418 224 228 224Z" fill="var(--flag-palette-brown, #85693d)"/>
<path fill-rule="evenodd" clip-rule="evenodd" d="M268 232C268 223.163 275.163 216 284 216C292.837 216 300 223.163 300 232C300 240.837 292.837 248 284 248C275.163 248 268 240.837 268 232ZM284 224C279.582 224 276 227.582 276 232C276 236.418 279.582 240 284 240C288.418 240 292 236.418 292 232C292 227.582 288.418 224 284 224Z" fill="var(--flag-palette-brown, #85693d)"/>
<path fill-rule="evenodd" clip-rule="evenodd" d="M224 264L288 264C296.837 264 304 271.163 304 280C304 288.837 296.837 296 288 296L224 296C215.163 296 208 288.837 208 280C208 271.163 215.163 264 224 264ZM224 272L223.978 272L226 272L226 278L238 278L238 272L242 272L242 278L254 278L254 272H238L224 272ZM216.252 278C216.976 275.189 219.189 272.976 222 272.252L222 278L216.252 278ZM216 280L216 279.977V280.023L216 280ZM222 287.748C219.189 287.024 216.976 284.811 216.252 282L222 282L222 287.748ZM238 288L226 288L226 282L238 282L238 288ZM254 288L242 288L242 282L254 282L254 288ZM270 288H258L258 282.001L270 282.001L270 288ZM286 288L274 288L274 282.001L286 282.001L286 288ZM295.748 282.001C295.024 284.812 292.811 287.025 290 287.748L290 282.001L295.748 282.001ZM290 272.252C292.812 272.976 295.025 275.189 295.748 278.001L290 278.001L290 272.252ZM270.283 272L286 272L286 278.001L274 278.001L274 272L270.283 272ZM254.049 272L270 272L270 278.001L258 278.001L258 272L254.049 272Z" fill="var(--flag-palette-brown, #85693d)"/>
</svg>

<svg xmlns="http://www.w3.org/2000/svg" width="512" height="512" fill="none"><path fill="var(--flag-palette-purple, #4a1f63)" d="M0 416h512v96H0z"/><path fill="var(--flag-palette-blue, #0052b4)" d="M0 343h512v96H0z"/><path fill="var(--flag-palette-light-blue, #338af3)" d="M0 270h512v96H0z"/><path fill="var(--flag-palette-dark-green, #496e2d)" d="M0 219h512v74H0z"/><path fill="var(--flag-palette-yellow, #ffda44)" d="M0 123h512v96H0z"/><path fill="var(--flag-palette-gold, #ff9811)" d="M0 50h512v96H0z"/><path fill="var(--flag-palette-bright-red, #d80027)" d="M0 0h512v73H0z"/><circle cx="256" cy="256" r="112" fill="var(--flag-palette-brown, #85693d)"/><path fill="var(--flag-palette-dark-yellow, #ffc635)" fill-rule="evenodd" d="M360 256a104 104 0 1 1-208 0 104 104 0 0 1 208 0m-40 0a64 64 0 1 1-128 0 64 64 0 0 1 128 0m-64 56a56 56 0 1 0 0-112 56 56 0 0 0 0 112" clip-rule="evenodd"/><path fill="var(--flag-palette-brown, #85693d)" fill-rule="evenodd" d="M212 232a16 16 0 1 1 32 0 16 16 0 0 1-32 0m16-8a8 8 0 1 0 0 16 8 8 0 0 0 0-16m40 8a16 16 0 1 1 32 0 16 16 0 0 1-32 0m16-8a8 8 0 1 0 0 16 8 8 0 0 0 0-16m-60 40h64a16 16 0 1 1 0 32h-64a16 16 0 1 1 0-32m0 8h2v6h12v-6h4v6h12v-6zm-7.7 6a8 8 0 0 1 5.7-5.7v5.7zm5.7 9.7a8 8 0 0 1-5.7-5.7h5.7zm16 .3h-12v-6h12zm16 0h-12v-6h12zm16 0h-12v-6h12zm16 0h-12v-6h12zm9.7-6a8 8 0 0 1-5.7 5.7V282zm-5.7-9.7c2.8.7 5 2.9 5.7 5.7H290zm-19.7-.3H286v6h-12v-6zm-16.3 0h16v6h-12v-6z" clip-rule="evenodd"/></svg>
